X:1
T: Mylecharane
N:
C:Trad Manx
S:
A:
O:
R:
M:3/4
K:G
I:speed 150
%W: A
% voice 1 (1 lines, 22 notes)
K:G
M:3/4
L:1/16
e4 |d4 B4 e4 |e8 e4 |d4 B4 G4 |F8 f4 |g4 f4 e4 |e4 ^d4 e4 |f4 d4 ^c4 |B8 f4 |
%W: B1
% voice 1 (1 lines, 26 notes)
g4 a4 g4 |f4 g4 e4 |e2 d2 c2 B2 A2 G2 |F4 G4 A4 |B4 G4 E4 |F4 e4 ^d4 |e4 g4 f4 |e8 f4 |
%W: B2
% voice 1 (1 lines, 25 notes)
g4 a4 g4 |f4 g4 e4 |e2 d2 c2 B2 A2 G2 |F4 G4 A4 |B4 G4 E4 |F4 e4 ^d4 |e4 g4 f4 |e8 ||
